bernoullicharts/2014_add_x_0_3_bits.svg

<?xml version="1.0" encoding="utf-8" standalone="no"?>
<!DOCTYPE svg PUBLIC "-//W3C//DTD SVG 1.1//EN"
  "http://www.w3.org/Graphics/SVG/1.1/DTD/svg11.dtd">
<!-- Created with matplotlib (https://matplotlib.org/) -->
<svg height="345.6pt" version="1.1" viewBox="0 0 460.8 345.6" width="460.8pt" xmlns="http://www.w3.org/2000/svg" xmlns:xlink="http://www.w3.org/1999/xlink">
 <defs>
  <style type="text/css">
*{stroke-linecap:butt;stroke-linejoin:round;}
  </style>
 </defs>
 <g id="figure_1">
  <g id="patch_1">
   <path d="M 0 345.6 
L 460.8 345.6 
L 460.8 0 
L 0 0 
z
" style="fill:#ffffff;"/>
  </g>
  <g id="axes_1">
   <g id="patch_2">
    <path d="M 57.6 307.584 
L 414.72 307.584 
L 414.72 41.472 
L 57.6 41.472 
z
" style="fill:#ffffff;"/>
   </g>
   <g id="matplotlib.axis_1">
    <g id="xtick_1">
     <g id="line2d_1">
      <defs>
       <path d="M 0 0 
L 0 3.5 
" id="me7ead01e3e" style="stroke:#000000;stroke-width:0.8;"/>
      </defs>
      <g>
       <use style="stroke:#000000;stroke-width:0.8;" x="73.776329" xlink:href="#me7ead01e3e" y="307.584"/>
      </g>
     </g>
     <g id="text_1">
      <text style="font-family:DejaVu Sans;font-size:10px;font-style:normal;font-weight:normal;text-anchor:middle;" transform="rotate(-0, 73.776329, 322.182437)" x="73.776329" y="322.182437">0.0</text>
     </g>
    </g>
    <g id="xtick_2">
     <g id="line2d_2">
      <g>
       <use style="stroke:#000000;stroke-width:0.8;" x="130.174977" xlink:href="#me7ead01e3e" y="307.584"/>
      </g>
     </g>
     <g id="text_2">
      <text style="font-family:DejaVu Sans;font-size:10px;font-style:normal;font-weight:normal;text-anchor:middle;" transform="rotate(-0, 130.174977, 322.182437)" x="130.174977" y="322.182437">0.1</text>
     </g>
    </g>
    <g id="xtick_3">
     <g id="line2d_3">
      <g>
       <use style="stroke:#000000;stroke-width:0.8;" x="186.573625" xlink:href="#me7ead01e3e" y="307.584"/>
      </g>
     </g>
     <g id="text_3">
      <text style="font-family:DejaVu Sans;font-size:10px;font-style:normal;font-weight:normal;text-anchor:middle;" transform="rotate(-0, 186.573625, 322.182437)" x="186.573625" y="322.182437">0.2</text>
     </g>
    </g>
    <g id="xtick_4">
     <g id="line2d_4">
      <g>
       <use style="stroke:#000000;stroke-width:0.8;" x="242.972273" xlink:href="#me7ead01e3e" y="307.584"/>
      </g>
     </g>
     <g id="text_4">
      <text style="font-family:DejaVu Sans;font-size:10px;font-style:normal;font-weight:normal;text-anchor:middle;" transform="rotate(-0, 242.972273, 322.182437)" x="242.972273" y="322.182437">0.3</text>
     </g>
    </g>
    <g id="xtick_5">
     <g id="line2d_5">
      <g>
       <use style="stroke:#000000;stroke-width:0.8;" x="299.370921" xlink:href="#me7ead01e3e" y="307.584"/>
      </g>
     </g>
     <g id="text_5">
      <text style="font-family:DejaVu Sans;font-size:10px;font-style:normal;font-weight:normal;text-anchor:middle;" transform="rotate(-0, 299.370921, 322.182437)" x="299.370921" y="322.182437">0.4</text>
     </g>
    </g>
    <g id="xtick_6">
     <g id="line2d_6">
      <g>
       <use style="stroke:#000000;stroke-width:0.8;" x="355.769569" xlink:href="#me7ead01e3e" y="307.584"/>
      </g>
     </g>
     <g id="text_6">
      <text style="font-family:DejaVu Sans;font-size:10px;font-style:normal;font-weight:normal;text-anchor:middle;" transform="rotate(-0, 355.769569, 322.182437)" x="355.769569" y="322.182437">0.5</text>
     </g>
    </g>
    <g id="xtick_7">
     <g id="line2d_7">
      <g>
       <use style="stroke:#000000;stroke-width:0.8;" x="412.168218" xlink:href="#me7ead01e3e" y="307.584"/>
      </g>
     </g>
     <g id="text_7">
      <text style="font-family:DejaVu Sans;font-size:10px;font-style:normal;font-weight:normal;text-anchor:middle;" transform="rotate(-0, 412.168218, 322.182437)" x="412.168218" y="322.182437">0.6</text>
     </g>
    </g>
    <g id="text_8">
     <text style="font-family:DejaVu Sans;font-size:10px;font-style:normal;font-weight:normal;text-anchor:middle;" transform="rotate(-0, 236.16, 335.860562)" x="236.16" y="335.860562">Probability</text>
    </g>
   </g>
   <g id="matplotlib.axis_2">
    <g id="ytick_1">
     <g id="line2d_8">
      <defs>
       <path d="M 0 0 
L -3.5 0 
" id="m7f571ee09e" style="stroke:#000000;stroke-width:0.8;"/>
      </defs>
      <g>
       <use style="stroke:#000000;stroke-width:0.8;" x="57.6" xlink:href="#m7f571ee09e" y="286.063727"/>
      </g>
     </g>
     <g id="text_9">
      <text style="font-family:DejaVu Sans;font-size:10px;font-style:normal;font-weight:normal;text-anchor:end;" transform="rotate(-0, 50.6, 289.862946)" x="50.6" y="289.862946">50</text>
     </g>
    </g>
    <g id="ytick_2">
     <g id="line2d_9">
      <g>
       <use style="stroke:#000000;stroke-width:0.8;" x="57.6" xlink:href="#m7f571ee09e" y="238.667465"/>
      </g>
     </g>
     <g id="text_10">
      <text style="font-family:DejaVu Sans;font-size:10px;font-style:normal;font-weight:normal;text-anchor:end;" transform="rotate(-0, 50.6, 242.466684)" x="50.6" y="242.466684">100</text>
     </g>
    </g>
    <g id="ytick_3">
     <g id="line2d_10">
      <g>
       <use style="stroke:#000000;stroke-width:0.8;" x="57.6" xlink:href="#m7f571ee09e" y="191.271203"/>
      </g>
     </g>
     <g id="text_11">
      <text style="font-family:DejaVu Sans;font-size:10px;font-style:normal;font-weight:normal;text-anchor:end;" transform="rotate(-0, 50.6, 195.070422)" x="50.6" y="195.070422">150</text>
     </g>
    </g>
    <g id="ytick_4">
     <g id="line2d_11">
      <g>
       <use style="stroke:#000000;stroke-width:0.8;" x="57.6" xlink:href="#m7f571ee09e" y="143.874942"/>
      </g>
     </g>
     <g id="text_12">
      <text style="font-family:DejaVu Sans;font-size:10px;font-style:normal;font-weight:normal;text-anchor:end;" transform="rotate(-0, 50.6, 147.67416)" x="50.6" y="147.67416">200</text>
     </g>
    </g>
    <g id="ytick_5">
     <g id="line2d_12">
      <g>
       <use style="stroke:#000000;stroke-width:0.8;" x="57.6" xlink:href="#m7f571ee09e" y="96.47868"/>
      </g>
     </g>
     <g id="text_13">
      <text style="font-family:DejaVu Sans;font-size:10px;font-style:normal;font-weight:normal;text-anchor:end;" transform="rotate(-0, 50.6, 100.277898)" x="50.6" y="100.277898">250</text>
     </g>
    </g>
    <g id="ytick_6">
     <g id="line2d_13">
      <g>
       <use style="stroke:#000000;stroke-width:0.8;" x="57.6" xlink:href="#m7f571ee09e" y="49.082418"/>
      </g>
     </g>
     <g id="text_14">
      <text style="font-family:DejaVu Sans;font-size:10px;font-style:normal;font-weight:normal;text-anchor:end;" transform="rotate(-0, 50.6, 52.881637)" x="50.6" y="52.881637">300</text>
     </g>
    </g>
    <g id="text_15">
     <text style="font-family:DejaVu Sans;font-size:10px;font-style:normal;font-weight:normal;text-anchor:middle;" transform="rotate(-90, 25.432812, 174.528)" x="25.432812" y="174.528">Average Bits Consumed Per Call</text>
    </g>
   </g>
   <g id="line2d_14">
    <path clip-path="url(#p7aec9c0932)" d="M 73.832727 287.180383 
L 79.528421 291.971197 
L 85.224115 287.857202 
L 90.919809 292.915331 
L 96.615502 295.488 
L 102.311196 287.24105 
L 108.00689 286.77088 
L 113.702584 288.124517 
L 119.398278 288.835461 
L 125.093971 289.629822 
L 130.789665 282.207567 
L 136.485359 274.935085 
L 142.181053 285.110114 
L 147.876746 282.236005 
L 153.57244 282.048316 
L 159.268134 281.617958 
L 164.963828 286.296917 
L 170.659522 286.964256 
L 176.355215 279.847234 
L 182.050909 283.032262 
L 187.746603 277.924841 
L 193.442297 274.042139 
L 199.13799 278.256615 
L 204.833684 273.661073 
L 210.529378 275.88301 
L 216.225072 266.936492 
L 221.920766 275.716175 
L 227.616459 268.252212 
L 233.312153 280.266217 
L 239.007847 273.234507 
L 244.703541 274.091432 
L 250.399234 266.185735 
L 256.094928 262.007281 
L 261.790622 269.945207 
L 267.486316 262.513473 
L 273.18201 255.754766 
L 278.877703 253.900624 
L 284.573397 255.504513 
L 290.269091 260.280161 
L 295.964785 258.071495 
M 307.356172 256.619274 
M 335.834641 239.930102 
M 347.226029 231.440483 
L 352.921722 235.662542 
L 358.617416 239.979394 
L 364.31311 235.306122 
L 370.008804 205.929919 
M 398.487273 186.605515 
" style="fill:none;stroke:#1f77b4;stroke-linecap:square;stroke-width:1.5;"/>
   </g>
   <g id="line2d_15">
    <path clip-path="url(#p7aec9c0932)" d="M 73.832727 239.435285 
L 79.528421 245.488735 
L 85.224115 239.528181 
L 90.919809 248.935392 
L 96.615502 246.256555 
L 102.311196 241.386115 
L 108.00689 233.889922 
L 113.702584 231.978905 
L 119.398278 234.087091 
L 125.093971 227.396634 
L 130.789665 232.335325 
L 136.485359 234.780972 
L 142.181053 230.393974 
L 147.876746 234.729784 
L 153.57244 213.87922 
L 159.268134 218.376178 
L 164.963828 216.300221 
L 170.659522 218.216926 
L 176.355215 212.766356 
L 182.050909 223.669392 
L 187.746603 220.893867 
L 193.442297 202.729724 
L 199.13799 204.513719 
L 204.833684 192.905427 
L 210.529378 208.88555 
L 216.225072 190.782074 
L 221.920766 170.066116 
L 227.616459 206.944199 
L 233.312153 203.723149 
L 239.007847 184.793082 
L 244.703541 174.674928 
L 250.399234 173.163936 
L 256.094928 177.765165 
L 261.790622 160.251298 
L 267.486316 173.550689 
L 273.18201 142.297594 
L 278.877703 151.501948 
L 284.573397 167.956034 
L 290.269091 162.033397 
L 295.964785 161.576497 
L 301.660478 139.031044 
L 307.356172 107.9372 
L 313.051866 107.216777 
L 318.74756 56.260108 
M 335.834641 113.753669 
M 347.226029 53.568 
" style="fill:none;stroke:#ff7f0e;stroke-linecap:square;stroke-width:1.5;"/>
   </g>
   <g id="line2d_16">
    <path clip-path="url(#p7aec9c0932)" d="M 0 0 
" style="fill:none;stroke:#2ca02c;stroke-linecap:square;stroke-width:1.5;"/>
   </g>
   <g id="patch_3">
    <path d="M 57.6 307.584 
L 57.6 41.472 
" style="fill:none;stroke:#000000;stroke-linecap:square;stroke-linejoin:miter;stroke-width:0.8;"/>
   </g>
   <g id="patch_4">
    <path d="M 414.72 307.584 
L 414.72 41.472 
" style="fill:none;stroke:#000000;stroke-linecap:square;stroke-linejoin:miter;stroke-width:0.8;"/>
   </g>
   <g id="patch_5">
    <path d="M 57.6 307.584 
L 414.72 307.584 
" style="fill:none;stroke:#000000;stroke-linecap:square;stroke-linejoin:miter;stroke-width:0.8;"/>
   </g>
   <g id="patch_6">
    <path d="M 57.6 41.472 
L 414.72 41.472 
" style="fill:none;stroke:#000000;stroke-linecap:square;stroke-linejoin:miter;stroke-width:0.8;"/>
   </g>
   <g id="text_16">
    <text style="font-family:DejaVu Sans;font-size:12px;font-style:normal;font-weight:normal;text-anchor:middle;" transform="rotate(-0, 236.16, 35.472)" x="236.16" y="35.472">Avg. Bits Consumed</text>
   </g>
   <g id="legend_1">
    <g id="patch_7">
     <path d="M 64.6 93.506375 
L 181.148438 93.506375 
Q 183.148438 93.506375 183.148438 91.506375 
L 183.148438 48.472 
Q 183.148438 46.472 181.148438 46.472 
L 64.6 46.472 
Q 62.6 46.472 62.6 48.472 
L 62.6 91.506375 
Q 62.6 93.506375 64.6 93.506375 
z
" style="fill:#ffffff;opacity:0.8;stroke:#cccccc;stroke-linejoin:miter;"/>
    </g>
    <g id="line2d_17">
     <path d="M 66.6 54.570438 
L 86.6 54.570438 
" style="fill:none;stroke:#1f77b4;stroke-linecap:square;stroke-width:1.5;"/>
    </g>
    <g id="line2d_18"/>
    <g id="text_17">
     <text style="font-family:DejaVu Sans;font-size:10px;font-style:normal;font-weight:normal;text-anchor:start;" transform="rotate(-0, 94.6, 58.070438)" x="94.6" y="58.070438">2014 Add. x+0.3</text>
    </g>
    <g id="line2d_19">
     <path d="M 66.6 69.248563 
L 86.6 69.248563 
" style="fill:none;stroke:#ff7f0e;stroke-linecap:square;stroke-width:1.5;"/>
    </g>
    <g id="line2d_20"/>
    <g id="text_18">
     <text style="font-family:DejaVu Sans;font-size:10px;font-style:normal;font-weight:normal;text-anchor:start;" transform="rotate(-0, 94.6, 72.748563)" x="94.6" y="72.748563">2016 Add. x+0.3</text>
    </g>
    <g id="line2d_21">
     <path d="M 66.6 83.926688 
L 86.6 83.926688 
" style="fill:none;stroke:#2ca02c;stroke-linecap:square;stroke-width:1.5;"/>
    </g>
    <g id="line2d_22"/>
    <g id="text_19">
     <text style="font-family:DejaVu Sans;font-size:10px;font-style:normal;font-weight:normal;text-anchor:start;" transform="rotate(-0, 94.6, 87.426688)" x="94.6" y="87.426688">2019 Add. x+0.3</text>
    </g>
   </g>
  </g>
 </g>
 <defs>
  <clipPath id="p7aec9c0932">
   <rect height="266.112" width="357.12" x="57.6" y="41.472"/>
  </clipPath>
 </defs>
</svg>

<svg height="460.8" viewBox="0 0 460.8 345.6" width="614.4" xmlns="http://www.w3.org/2000/svg" xmlns:xlink="http://www.w3.org/1999/xlink"><defs><style>*{stroke-linecap:butt;stroke-linejoin:round}</style></defs><g id="figure_1"><path d="M0 345.6h460.8V0H0z" fill="#fff" id="patch_1"/><g id="axes_1"><path d="M57.6 307.584h357.12V41.472H57.6z" fill="#fff" id="patch_2"/><g id="matplotlib.axis_1"><g id="xtick_1"><g id="line2d_1"><defs><path d="M0 0v3.5" id="me7ead01e3e" stroke="#000" stroke-width=".8"/></defs><use x="73.776" xlink:href="#me7ead01e3e" y="307.584" stroke="#000" stroke-width=".8"/></g><text x="73.776" y="322.182" font-family="DejaVu Sans" font-size="10" font-weight="400" text-anchor="middle" id="text_1">0.0</text></g><g id="xtick_2"><use x="130.175" xlink:href="#me7ead01e3e" y="307.584" stroke="#000" stroke-width=".8" id="line2d_2"/><text x="130.175" y="322.182" font-family="DejaVu Sans" font-size="10" font-weight="400" text-anchor="middle" id="text_2">0.1</text></g><g id="xtick_3"><use x="186.574" xlink:href="#me7ead01e3e" y="307.584" stroke="#000" stroke-width=".8" id="line2d_3"/><text x="186.574" y="322.182" font-family="DejaVu Sans" font-size="10" font-weight="400" text-anchor="middle" id="text_3">0.2</text></g><g id="xtick_4"><use x="242.972" xlink:href="#me7ead01e3e" y="307.584" stroke="#000" stroke-width=".8" id="line2d_4"/><text x="242.972" y="322.182" font-family="DejaVu Sans" font-size="10" font-weight="400" text-anchor="middle" id="text_4">0.3</text></g><g id="xtick_5"><use x="299.371" xlink:href="#me7ead01e3e" y="307.584" stroke="#000" stroke-width=".8" id="line2d_5"/><text x="299.371" y="322.182" font-family="DejaVu Sans" font-size="10" font-weight="400" text-anchor="middle" id="text_5">0.4</text></g><g id="xtick_6"><use x="355.77" xlink:href="#me7ead01e3e" y="307.584" stroke="#000" stroke-width=".8" id="line2d_6"/><text x="355.77" y="322.182" font-family="DejaVu Sans" font-size="10" font-weight="400" text-anchor="middle" id="text_6">0.5</text></g><g id="xtick_7"><use x="412.168" xlink:href="#me7ead01e3e" y="307.584" stroke="#000" stroke-width=".8" id="line2d_7"/><text x="412.168" y="322.182" font-family="DejaVu Sans" font-size="10" font-weight="400" text-anchor="middle" id="text_7">0.6</text></g><text x="236.16" y="335.861" font-family="DejaVu Sans" font-size="10" font-weight="400" text-anchor="middle" id="text_8">Probability</text></g><g id="matplotlib.axis_2"><g id="ytick_1"><g id="line2d_8"><defs><path d="M0 0h-3.5" id="m7f571ee09e" stroke="#000" stroke-width=".8"/></defs><use x="57.6" xlink:href="#m7f571ee09e" y="286.064" stroke="#000" stroke-width=".8"/></g><text x="50.6" y="289.863" font-family="DejaVu Sans" font-size="10" font-weight="400" text-anchor="end" id="text_9">50</text></g><g id="ytick_2"><use x="57.6" xlink:href="#m7f571ee09e" y="238.667" stroke="#000" stroke-width=".8" id="line2d_9"/><text x="50.6" y="242.467" font-family="DejaVu Sans" font-size="10" font-weight="400" text-anchor="end" id="text_10">100</text></g><g id="ytick_3"><use x="57.6" xlink:href="#m7f571ee09e" y="191.271" stroke="#000" stroke-width=".8" id="line2d_10"/><text x="50.6" y="195.07" font-family="DejaVu Sans" font-size="10" font-weight="400" text-anchor="end" id="text_11">150</text></g><g id="ytick_4"><use x="57.6" xlink:href="#m7f571ee09e" y="143.875" stroke="#000" stroke-width=".8" id="line2d_11"/><text x="50.6" y="147.674" font-family="DejaVu Sans" font-size="10" font-weight="400" text-anchor="end" id="text_12">200</text></g><g id="ytick_5"><use x="57.6" xlink:href="#m7f571ee09e" y="96.479" stroke="#000" stroke-width=".8" id="line2d_12"/><text x="50.6" y="100.278" font-family="DejaVu Sans" font-size="10" font-weight="400" text-anchor="end" id="text_13">250</text></g><g id="ytick_6"><use x="57.6" xlink:href="#m7f571ee09e" y="49.082" stroke="#000" stroke-width=".8" id="line2d_13"/><text x="50.6" y="52.882" font-family="DejaVu Sans" font-size="10" font-weight="400" text-anchor="end" id="text_14">300</text></g><text transform="rotate(-90 25.433 174.528)" x="25.433" y="174.528" font-family="DejaVu Sans" font-size="10" font-weight="400" text-anchor="middle" id="text_15">Average Bits Consumed Per Call</text></g><path clip-path="url(#p7aec9c0932)" d="M73.833 287.18l5.695 4.791 5.696-4.114 5.696 5.058 5.696 2.573 5.695-8.247 5.696-.47 5.696 1.354 5.695.71 5.696.795 5.696-7.422 5.695-7.273 5.696 10.175 5.696-2.874 5.695-.188 5.696-.43 5.696 4.679 5.696.667 5.695-7.117 5.696 3.185 5.696-5.107 5.695-3.883 5.696 4.215 5.696-4.596 5.695 2.222 5.696-8.947 5.696 8.78 5.695-7.464 5.696 12.014 5.696-7.031 5.696.856 5.695-7.905 5.696-4.179 5.696 7.938 5.695-7.432 5.696-6.758 5.696-1.854 5.695 1.604 5.696 4.775 5.696-2.209M347.226 231.44l5.696 4.223 5.695 4.316 5.696-4.673 5.696-29.376m28.478-19.324" fill="none" stroke="#1f77b4" stroke-linecap="square" stroke-width="1.5" id="line2d_14"/><path clip-path="url(#p7aec9c0932)" d="M73.833 239.435l5.695 6.054 5.696-5.96 5.696 9.406 5.696-2.678 5.695-4.87 5.696-7.497 5.696-1.911 5.695 2.108 5.696-6.69 5.696 4.938 5.695 2.446 5.696-4.387 5.696 4.336 5.695-20.85 5.696 4.496 5.696-2.076 5.696 1.917 5.695-5.45 5.696 10.902 5.696-2.775 5.695-18.164 5.696 1.784 5.696-11.609 5.695 15.98 5.696-18.103 5.696-20.716 5.695 36.878 5.696-3.22 5.696-18.93 5.696-10.12 5.695-1.51 5.696 4.601 5.696-17.514 5.695 13.3 5.696-31.253 5.696 9.204 5.695 16.454 5.696-5.923 5.696-.457 5.695-22.545 5.696-31.094 5.696-.72 5.696-50.957m28.478-2.692" fill="none" stroke="#ff7f0e" stroke-linecap="square" stroke-width="1.5" id="line2d_15"/><path d="M57.6 307.584V41.472" fill="none" stroke="#000" stroke-linecap="square" stroke-width=".8" id="patch_3"/><path d="M414.72 307.584V41.472" fill="none" stroke="#000" stroke-linecap="square" stroke-width=".8" id="patch_4"/><path d="M57.6 307.584h357.12" fill="none" stroke="#000" stroke-linecap="square" stroke-width=".8" id="patch_5"/><path d="M57.6 41.472h357.12" fill="none" stroke="#000" stroke-linecap="square" stroke-width=".8" id="patch_6"/><text x="236.16" y="35.472" font-family="DejaVu Sans" font-size="12" font-weight="400" text-anchor="middle" id="text_16">Avg. Bits Consumed</text><g id="legend_1"><path d="M64.6 93.506h116.548q2 0 2-2V48.472q0-2-2-2H64.6q-2 0-2 2v43.034q0 2 2 2z" fill="#fff" opacity=".8" stroke="#ccc" id="patch_7"/><path d="M66.6 54.57h20" fill="none" stroke="#1f77b4" stroke-linecap="square" stroke-width="1.5" id="line2d_17"/><text x="94.6" y="58.07" font-family="DejaVu Sans" font-size="10" font-weight="400" id="text_17">2014 Add. x+0.3</text><path d="M66.6 69.249h20" fill="none" stroke="#ff7f0e" stroke-linecap="square" stroke-width="1.5" id="line2d_19"/><text x="94.6" y="72.749" font-family="DejaVu Sans" font-size="10" font-weight="400" id="text_18">2016 Add. x+0.3</text><path d="M66.6 83.927h20" fill="none" stroke="#2ca02c" stroke-linecap="square" stroke-width="1.5" id="line2d_21"/><text x="94.6" y="87.427" font-family="DejaVu Sans" font-size="10" font-weight="400" id="text_19">2019 Add. x+0.3</text></g></g></g><defs><clipPath id="p7aec9c0932"><path d="M57.6 41.472h357.12v266.112H57.6z"/></clipPath></defs></svg>
